X:88
T:Reels simple chords 9
M:3/4
L:1/8
K:G
dc [B2G,2B,2D2] Bc | BA GF [EC,E,G,]C | EG c2 dc | [BG,B,D]A Bc BA | GB [AD,F,A,C]B AF |
D2 dc [B2G,2B,2D2] | Bc BA GF | [EC,E,G,]C EG cc | dc [BG,B,D]A GB |
AG FA [G2G,2B,2D2] | GG G2 dc | [B2G,2B,2D2] Bc BA | GF [EC,E,G,]C EG |
c2 dc [BG,B,D]A | Bc BA GB | [AD,F,A,C]B AF D2 | dc [B2G,2B,2D2] Bc |
BA GF [EC,E,G,]C | EG cc dc | [BG,B,D]A GB AG | FA [G2G,2B,2D2] GG |
G2 d2 [e3C,3E,3G,3] |d c2 A2 | [B4G,4B,4D4]< d4 | [D2D,2F,2A,2] DD |
F2 FF [AD,F,A,]A | A2 d4 | [G2G,2B,2D2] GG B2 | BB [dG,B,D]d d2 |
g2 d2 [e3C,3E,3G,3] |d c2 A2 | [B4G,4B,4D4]< d4 | [D2D,2F,2A,2] DD |
F2 FF [AD,F,A,]A | A2 d2 dc | [BG,B,D]A GB AG | FA [G2G,2B,2D2] GG |
G |


